semcore/illustration/svg/NothingFound.svg

<svg width="81" height="80" viewBox="0 0 81 80" fill="none" xmlns="http://www.w3.org/2000/svg">
<path d="M68.0481 23.5761C65.5434 15.4416 60.6538 7.59132 53.9997 2.18581C53.7754 1.96152 53.3717 1.96152 53.0876 2.07366L42.3364 6.91096C32.7216 5.1465 23.1667 4.75025 13.8958 8.15953C13.5519 8.27168 13.3276 8.55578 13.3276 8.8997C13.2155 11.5165 12.6472 22.4396 12.6472 22.4396C6.2698 29.2059 1.26803 37.6842 0.0119753 46.8952C-0.0478366 47.2392 0.124123 47.5233 0.355894 47.6952L11.9594 55.7698C14.464 63.9043 19.3537 71.7546 26.0077 77.1601C26.232 77.3844 26.6358 77.3844 26.9199 77.2722L37.6711 72.4349C47.2858 74.1994 56.8408 74.5957 66.1116 71.1864C66.4556 71.0742 66.6799 70.7901 66.6799 70.4462L67.3602 56.9063C73.7302 50.14 78.7394 41.6617 79.988 32.4507C80.0478 32.1067 79.8759 31.8226 79.6441 31.6507L68.0481 23.5761Z" fill="#E0E1E9"/>
<path d="M78.0735 52.9089C78.1034 52.8342 78.1333 52.7519 78.1558 52.6772L79.7707 48.2885L76.653 47.4735L60.6533 21.5825C59.2926 19.3769 56.6609 18.2928 54.1338 18.8984L8.95336 29.8066L6.00015 29.0365L4.60952 33.0738C4.55719 33.2009 4.51233 33.3355 4.47495 33.4701C4.12355 34.6514 4.20579 35.9747 4.83382 37.1859L20.1681 66.5835C22.0372 70.1647 26.2315 71.8544 30.052 70.5684L75.6063 55.264C76.7876 54.8603 77.6474 53.9706 78.0735 52.9089Z" fill="#6C6E79" stroke="#6C6E79" stroke-miterlimit="10" stroke-linecap="round" stroke-linejoin="round"/>
<path d="M77.0933 51.3145L31.5391 66.245C27.7111 67.531 23.5168 65.8413 21.6551 62.2601L6.32086 32.87C4.81809 29.9915 6.41806 26.4626 9.58062 25.7L55.6358 14.5899C58.1554 13.9843 60.7871 15.061 62.1553 17.274L79.2541 45.3258C80.6297 47.5538 79.5755 50.4846 77.0933 51.3145Z" fill="white" stroke="#6C6E79" stroke-miterlimit="10" stroke-linecap="round" stroke-linejoin="round"/>
<path d="M64.1367 20.5256L62.1554 17.2734C60.7947 15.0678 58.163 13.9837 55.6359 14.5893L9.58072 25.6994C6.42564 26.462 4.8182 29.9834 6.32097 32.8693L7.86113 35.83L64.1367 20.5256Z" fill="#E0E1E9" stroke="#6C6E79" stroke-miterlimit="10" stroke-linecap="round" stroke-linejoin="round"/>
<path d="M14.0254 31.7407C14.8231 31.2974 14.9364 29.9784 14.2786 28.7946C13.6208 27.6108 12.4409 27.0104 11.6433 27.4536C10.8456 27.8968 10.7322 29.2158 11.3901 30.3996C12.0479 31.5835 13.2278 32.1839 14.0254 31.7407Z" fill="#6C6E79" stroke="#6C6E79" stroke-miterlimit="10" stroke-linecap="round" stroke-linejoin="round"/>
<path d="M21.3589 29.9216C22.1566 29.4784 22.2699 28.1594 21.6121 26.9755C20.9543 25.7917 19.7744 25.1913 18.9768 25.6345C18.1791 26.0777 18.0657 27.3967 18.7235 28.5806C19.3814 29.7644 20.5613 30.3648 21.3589 29.9216Z" fill="#6C6E79" stroke="#6C6E79" stroke-miterlimit="10" stroke-linecap="round" stroke-linejoin="round"/>
<path d="M22.0371 42.1619L60.9373 31.2761" stroke="#E0E1E9" stroke-miterlimit="10" stroke-linecap="round" stroke-linejoin="round"/>
<path d="M70.0125 40.9727L68.734 38.9017C68.5546 38.6176 68.2106 38.483 67.8891 38.5802L24.219 51.4173C23.7704 51.5519 23.5461 52.0603 23.7704 52.479L24.9442 54.7294C25.1087 55.0434 25.475 55.2004 25.8189 55.1033L69.5938 42.0792C70.0573 41.9371 70.2667 41.3914 70.0125 40.9727Z" fill="#E0E1E9"/>
<path d="M63.2077 47.0372L27.7467 58.2146C27.2981 58.3567 27.0888 58.8651 27.3056 59.2763C27.657 59.9342 28.143 60.8613 28.457 61.4444C28.6289 61.7585 28.9953 61.908 29.3392 61.8033L65.0095 50.5587C65.4805 50.4091 65.6824 49.8559 65.4133 49.4372L64.06 47.3513C63.8731 47.0597 63.5292 46.9326 63.2077 47.0372Z" fill="#E0E1E9"/>
<path d="M48.8562 24.5101C53.2225 32.3679 52.0337 41.3621 46.1946 44.6069C40.3554 47.8517 32.0939 44.106 27.7276 36.2556C24.2884 30.0726 24.2959 23.1793 27.3015 18.9401C28.1164 17.7962 29.1482 16.8467 30.3893 16.1588C36.2209 12.914 44.4899 16.6523 48.8562 24.5101Z" fill="#6C6E79" stroke="#6C6E79" stroke-miterlimit="10" stroke-linecap="round" stroke-linejoin="round"/>
<path d="M28.0498 19.3157C28.0498 19.3157 31.9301 13.6036 35.5936 14.0148C39.257 14.426 36.9094 41.8349 36.9094 41.8349C36.9094 41.8349 26.7563 21.4913 28.0498 19.3157Z" stroke="#6C6E79" stroke-miterlimit="10" stroke-linecap="round" stroke-linejoin="round"/>
<path d="M56.8495 62.2209C55.1748 63.148 53.0515 62.5424 52.1244 60.8677L40.8947 40.6737C39.9676 38.9989 40.5732 36.8756 42.2479 35.9485C43.9227 35.0214 46.046 35.627 46.9731 37.3018L58.1953 57.5033C59.1224 59.163 58.5168 61.2938 56.8495 62.2209Z" fill="#E0E1E9" stroke="#6C6E79" stroke-miterlimit="10" stroke-linecap="round" stroke-linejoin="round"/>
<path d="M46.9731 37.2962C46.046 35.6214 43.9152 35.0158 42.2479 35.9429C40.5732 36.87 39.9676 39.0008 40.8947 40.6681L45.8965 49.6698C45.8965 49.6698 46.5918 41.5054 50.9655 44.4811L46.9731 37.2962Z" fill="#6C6E79" stroke="#6C6E79" stroke-miterlimit="10" stroke-linecap="round" stroke-linejoin="round"/>
<path d="M48.403 42.401C54.2393 39.1581 55.4311 30.1594 51.065 22.302C46.699 14.4446 38.4284 10.7038 32.5922 13.9467C26.756 17.1897 25.5642 26.1883 29.9302 34.0457C34.2962 41.9032 42.5668 45.644 48.403 42.401Z" fill="#E0E1E9"/>
<path d="M31.9059 34.0435C27.5396 26.1857 28.7284 17.1915 34.5675 13.9467C35.689 13.3261 36.9002 12.9673 38.1562 12.8327C36.1974 12.6607 34.2909 12.9972 32.5937 13.9467C26.762 17.1915 25.5658 26.1857 29.9321 34.0435C33.461 40.391 39.5319 44.047 44.8178 43.5087C40.0552 43.0975 35.0011 39.6135 31.9059 34.0435Z" fill="white"/>
<path d="M48.403 42.401C54.2393 39.1581 55.4311 30.1594 51.065 22.302C46.699 14.4446 38.4284 10.7038 32.5922 13.9467C26.756 17.1897 25.5642 26.1883 29.9302 34.0457C34.2962 41.9032 42.5668 45.644 48.403 42.401Z" stroke="#6C6E79" stroke-miterlimit="10" stroke-linecap="round" stroke-linejoin="round"/>
<path d="M49.5444 37.0344C48.9912 37.8419 48.2809 38.4998 47.4286 38.9783C43.2193 41.3184 37.0138 38.2007 33.5746 32.0177C30.1355 25.8346 30.7635 18.9189 34.9802 16.5787C39.197 14.2386 45.395 17.3563 48.8342 23.5393C50.2024 26.0066 50.9276 28.586 51.0397 30.9485" stroke="#6C6E79" stroke-miterlimit="10" stroke-linecap="round" stroke-linejoin="round"/>
<path d="M37.3422 17.5355C39.3684 17.0196 42.5309 17.5056 44.3402 20.384C46.1495 23.2625 44.9159 23.5914 43.4356 22.2756C41.9552 20.9597 38.9945 20.1896 37.3422 21.6027C35.6974 23.0157 34.3815 20.6307 35.0395 19.3971C35.6974 18.1635 36.6768 17.7074 37.3422 17.5355Z" fill="white"/>
<path d="M45.8218 24.6675C45.8218 24.6675 45.8666 23.5236 46.5844 23.9274C47.3021 24.3386 48.1245 25.4077 47.3844 25.9012C46.6442 26.3946 45.8218 24.6675 45.8218 24.6675Z" fill="white"/>
</svg>

<svg width="81" height="80" viewBox="0 0 81 80" fill="none" xmlns="http://www.w3.org/2000/svg"><path d="M68.048 23.576C65.543 15.442 60.654 7.591 54 2.186c-.225-.224-.628-.224-.912-.112L42.336 6.91c-9.614-1.764-19.17-2.16-28.44 1.249-.344.112-.568.396-.568.74-.112 2.617-.68 13.54-.68 13.54C6.27 29.206 1.267 37.684.011 46.895c-.06.344.112.628.344.8l11.603 8.075c2.505 8.134 7.395 15.985 14.049 21.39.224.224.628.224.912.112l10.751-4.837c9.615 1.764 19.17 2.16 28.44-1.249.345-.112.569-.396.569-.74l.68-13.54c6.37-6.766 11.38-15.244 12.628-24.455.06-.344-.112-.628-.344-.8l-11.596-8.075Z" fill="#E0E1E9"/><path d="M78.073 52.909c.03-.075.06-.157.083-.232l1.614-4.389-3.117-.814-16-25.891a6.015 6.015 0 0 0-6.52-2.685L8.954 29.807 6 29.037l-1.39 4.037a3.525 3.525 0 0 0-.135.396 4.959 4.959 0 0 0 .359 3.716l15.334 29.398a8.203 8.203 0 0 0 9.884 3.984l45.554-15.304a4.074 4.074 0 0 0 2.467-2.355Z" fill="#6C6E79" stroke="#6C6E79" stroke-miterlimit="10" stroke-linecap="round" stroke-linejoin="round"/><path d="M77.093 51.315 31.54 66.245a8.196 8.196 0 0 1-9.884-3.985L6.321 32.87c-1.503-2.878.097-6.407 3.26-7.17l46.055-11.11a6.013 6.013 0 0 1 6.52 2.684l17.098 28.052c1.376 2.228.321 5.159-2.16 5.989Z" fill="#fff" stroke="#6C6E79" stroke-miterlimit="10" stroke-linecap="round" stroke-linejoin="round"/><path d="m64.137 20.526-1.982-3.253a6.015 6.015 0 0 0-6.52-2.684L9.582 25.7c-3.155.763-4.763 4.284-3.26 7.17l1.54 2.961 56.276-15.304Z" fill="#E0E1E9" stroke="#6C6E79" stroke-miterlimit="10" stroke-linecap="round" stroke-linejoin="round"/><path d="M14.025 31.74c.798-.443.911-1.762.253-2.945-.657-1.184-1.837-1.785-2.635-1.341-.798.443-.911 1.762-.253 2.946.658 1.184 1.837 1.784 2.635 1.34ZM21.359 29.922c.797-.444.91-1.763.253-2.947-.658-1.183-1.838-1.784-2.635-1.34-.798.443-.912 1.762-.254 2.946.658 1.183 1.838 1.784 2.636 1.34Z" fill="#6C6E79" stroke="#6C6E79" stroke-miterlimit="10" stroke-linecap="round" stroke-linejoin="round"/><path d="m22.037 42.162 38.9-10.886" stroke="#E0E1E9" stroke-miterlimit="10" stroke-linecap="round" stroke-linejoin="round"/><path d="m70.012 40.973-1.278-2.071a.746.746 0 0 0-.845-.322l-43.67 12.837a.743.743 0 0 0-.449 1.062l1.174 2.25c.164.314.53.471.875.374L69.594 42.08a.75.75 0 0 0 .418-1.106ZM63.208 47.037 27.747 58.215a.748.748 0 0 0-.442 1.061c.352.658.838 1.585 1.152 2.168a.753.753 0 0 0 .882.36l35.67-11.245a.749.749 0 0 0 .404-1.122l-1.353-2.086a.736.736 0 0 0-.852-.314Z" fill="#E0E1E9"/><path d="M48.856 24.51c4.366 7.858 3.177 16.852-2.662 20.097-5.839 3.245-14.1-.501-18.467-8.351-3.439-6.183-3.431-13.077-.426-17.316a9.343 9.343 0 0 1 3.088-2.781c5.832-3.245 14.1.493 18.467 8.351Z" fill="#6C6E79" stroke="#6C6E79" stroke-miterlimit="10" stroke-linecap="round" stroke-linejoin="round"/><path d="M28.05 19.316s3.88-5.712 7.543-5.301c3.664.411 1.316 27.82 1.316 27.82s-10.153-20.344-8.86-22.52Z" stroke="#6C6E79" stroke-miterlimit="10" stroke-linecap="round" stroke-linejoin="round"/><path d="M56.85 62.22a3.482 3.482 0 0 1-4.726-1.352l-11.23-20.194a3.482 3.482 0 0 1 1.354-4.725 3.482 3.482 0 0 1 4.725 1.353l11.222 20.201c.927 1.66.321 3.79-1.346 4.718Z" fill="#E0E1E9" stroke="#6C6E79" stroke-miterlimit="10" stroke-linecap="round" stroke-linejoin="round"/><path d="M46.973 37.296a3.484 3.484 0 0 0-4.725-1.353 3.484 3.484 0 0 0-1.354 4.725l5.002 9.002s.695-8.165 5.07-5.189l-3.993-7.185Z" fill="#6C6E79" stroke="#6C6E79" stroke-miterlimit="10" stroke-linecap="round" stroke-linejoin="round"/><path d="M48.403 42.401c5.836-3.243 7.028-12.242 2.662-20.099-4.366-7.857-12.637-11.598-18.473-8.355-5.836 3.243-7.028 12.241-2.662 20.099 4.366 7.857 12.636 11.598 18.473 8.355Z" fill="#E0E1E9"/><path d="M31.906 34.044c-4.366-7.858-3.178-16.852 2.661-20.097a9.431 9.431 0 0 1 3.59-1.114c-1.96-.172-3.866.164-5.563 1.114-5.832 3.245-7.028 12.239-2.662 20.097 3.529 6.347 9.6 10.003 14.886 9.465-4.763-.412-9.817-3.895-12.912-9.465Z" fill="#fff"/><path d="M48.403 42.401c5.836-3.243 7.028-12.242 2.662-20.099-4.366-7.857-12.637-11.598-18.473-8.355-5.836 3.243-7.028 12.241-2.662 20.099 4.366 7.857 12.636 11.598 18.473 8.355Z" stroke="#6C6E79" stroke-miterlimit="10" stroke-linecap="round" stroke-linejoin="round"/><path d="M49.544 37.034a6.273 6.273 0 0 1-2.116 1.944c-4.209 2.34-10.414-.777-13.854-6.96-3.439-6.183-2.81-13.1 1.406-15.44 4.217-2.34 10.415.778 13.854 6.961 1.368 2.468 2.093 5.047 2.205 7.41" stroke="#6C6E79" stroke-miterlimit="10" stroke-linecap="round" stroke-linejoin="round"/><path d="M37.342 17.535c2.026-.515 5.189-.03 6.998 2.849 1.81 2.878.576 3.207-.905 1.892-1.48-1.316-4.44-2.086-6.093-.673-1.645 1.413-2.96-.972-2.303-2.206.658-1.233 1.638-1.69 2.303-1.861ZM45.822 24.668s.044-1.144.762-.74c.718.41 1.54 1.48.8 1.973-.74.494-1.563-1.233-1.563-1.233Z" fill="#fff"/></svg>
